X: 21422
T: Kestrel, The
R: jig
M: 6/8
K: Aminor
e|:A (3AAA ede|a2g edg|G (3GGG BAB|GeB dee|
A (3AAA ede|a2g edg|GBB dee|AGB A3:|
|:a2A ede|Aaa gaa|g2g dAB|Gee deg|
a2A ede|Aaa gaa|GBB dee|AGB A3:|
|:A (3AAA eAa|AaB dee|B (3BBB A (3AAA|gGd Beg|
a3 g2e|Bee deg|aAA edg|AGB A3:|
|:a (3AAA Bed|a (3AAA aAa|GgG gBd|edg Beg|
aAa gGe|dGG Bee|Aee dgg|AGB A3:|

